X: 36789
T: Sherlock's
R: hornpipe
M: 4/4
K: Cmajor
|:A>B|c>d (3cBA G>FE>G|c>Gc>d (3efg c’>b|a>gf>e d>ec>d|e>dc>B A2 (3GAB|
c>dc>A G>FE>G|c>Gc>d e>gc’>b|a>gf>e d>ec>d|e>c (3ccB c2:|
|:e>f|g>ag>f g>ec>G|c>eg>a g>c’b>c’|a>b (3c’ba g>e (3cde|(3fed (3edc d>c (3BAG|
c>d (3cBA G2 (3EFG|c>Gc>d e>gc’>b|a2 (3gfe (3ded (3Bcd|e>c (3ccB c2:|

